svg/aws-config.svg

<?xml version="1.0" encoding="UTF-8"?>
<svg xmlns="http://www.w3.org/2000/svg" xmlns:xlink="http://www.w3.org/1999/xlink" width="32" height="32" viewBox="0 0 32 32">
<path fill-rule="nonzero" fill="rgb(90.588235%, 8.235294%, 48.235294%)" fill-opacity="1" d="M 0.203125 0.203125 L 31.796875 0.203125 L 31.796875 31.796875 L 0.203125 31.796875 Z M 0.203125 0.203125 "/>
<path fill-rule="nonzero" fill="rgb(100%, 100%, 100%)" fill-opacity="1" d="M 24.679688 19.300781 L 25.558594 19.605469 L 25.003906 21.210938 C 24.9375 21.398438 24.761719 21.523438 24.5625 21.519531 L 24.507812 21.519531 L 22.710938 21.292969 L 22.828125 20.371094 L 23.84375 20.496094 C 23.441406 19.867188 22.691406 19.480469 21.792969 19.480469 C 20.613281 19.480469 19.722656 20.125 19.519531 21.121094 L 18.609375 20.933594 C 18.90625 19.484375 20.15625 18.546875 21.792969 18.546875 C 22.941406 18.546875 23.914062 19.035156 24.5 19.820312 Z M 24.066406 22.453125 L 24.976562 22.644531 C 24.679688 24.082031 23.402344 25.046875 21.792969 25.046875 C 20.742188 25.046875 19.820312 24.59375 19.222656 23.871094 L 19.132812 24.308594 L 18.21875 24.113281 L 18.589844 22.371094 C 18.640625 22.121094 18.886719 21.960938 19.136719 22.011719 L 20.828125 22.34375 L 20.648438 23.257812 L 19.796875 23.089844 C 20.203125 23.714844 20.941406 24.117188 21.792969 24.117188 C 22.96875 24.117188 23.859375 23.464844 24.066406 22.453125 M 27.707031 22.597656 L 27.148438 22.566406 C 26.921875 22.558594 26.71875 22.710938 26.664062 22.929688 C 26.542969 23.476562 26.328125 24 26.023438 24.472656 C 25.902344 24.667969 25.941406 24.917969 26.109375 25.070312 L 26.527344 25.441406 L 25.445312 26.527344 L 25.074219 26.109375 C 24.921875 25.941406 24.667969 25.90625 24.476562 26.03125 C 24 26.328125 23.476562 26.542969 22.929688 26.667969 C 22.707031 26.71875 22.554688 26.921875 22.566406 27.152344 L 22.597656 27.707031 L 21.0625 27.707031 L 21.09375 27.152344 C 21.109375 26.925781 20.957031 26.71875 20.734375 26.667969 C 20.1875 26.542969 19.664062 26.328125 19.1875 26.03125 C 18.996094 25.90625 18.746094 25.941406 18.59375 26.109375 L 18.21875 26.527344 L 17.136719 25.441406 L 17.554688 25.074219 C 17.722656 24.921875 17.757812 24.667969 17.636719 24.476562 C 17.335938 24 17.121094 23.476562 16.996094 22.929688 C 16.949219 22.707031 16.746094 22.550781 16.519531 22.566406 L 15.960938 22.597656 L 15.960938 21.066406 L 16.519531 21.09375 C 16.746094 21.101562 16.945312 20.953125 17 20.734375 C 17.121094 20.1875 17.339844 19.667969 17.640625 19.191406 C 17.761719 19 17.726562 18.746094 17.554688 18.597656 L 17.136719 18.21875 L 18.21875 17.136719 L 18.597656 17.554688 C 18.746094 17.726562 19 17.761719 19.191406 17.640625 C 19.664062 17.339844 20.1875 17.125 20.734375 17 C 20.957031 16.957031 21.113281 16.75 21.09375 16.523438 L 21.0625 15.960938 L 22.597656 15.960938 L 22.566406 16.523438 C 22.550781 16.75 22.707031 16.953125 22.929688 17 C 23.476562 17.125 23.996094 17.339844 24.46875 17.640625 C 24.664062 17.761719 24.917969 17.730469 25.070312 17.558594 L 25.441406 17.136719 L 26.527344 18.21875 L 26.109375 18.597656 C 25.941406 18.75 25.902344 19 26.023438 19.191406 C 26.324219 19.667969 26.542969 20.1875 26.664062 20.734375 C 26.71875 20.957031 26.933594 21.109375 27.148438 21.09375 L 27.707031 21.066406 Z M 28.492188 20.234375 C 28.398438 20.148438 28.273438 20.101562 28.148438 20.105469 L 27.472656 20.148438 C 27.359375 19.761719 27.203125 19.390625 27.011719 19.039062 L 27.515625 18.589844 C 27.613281 18.503906 27.667969 18.382812 27.667969 18.253906 C 27.675781 18.125 27.625 18 27.535156 17.910156 L 25.753906 16.128906 C 25.664062 16.039062 25.539062 15.988281 25.410156 15.992188 C 25.285156 15.996094 25.164062 16.050781 25.078125 16.148438 L 24.628906 16.652344 C 24.277344 16.460938 23.90625 16.308594 23.519531 16.195312 L 23.558594 15.519531 C 23.566406 15.390625 23.519531 15.265625 23.429688 15.175781 C 23.34375 15.082031 23.222656 15.027344 23.09375 15.027344 L 20.574219 15.027344 C 20.445312 15.027344 20.324219 15.082031 20.234375 15.171875 C 20.144531 15.265625 20.097656 15.390625 20.105469 15.519531 L 20.148438 16.195312 C 19.761719 16.308594 19.390625 16.460938 19.039062 16.652344 L 18.589844 16.148438 C 18.503906 16.050781 18.382812 15.996094 18.253906 15.992188 C 18.125 15.988281 18 16.035156 17.910156 16.128906 L 16.128906 17.910156 C 16.039062 18 15.988281 18.125 15.992188 18.253906 C 15.996094 18.382812 16.054688 18.503906 16.148438 18.589844 L 16.652344 19.039062 C 16.460938 19.394531 16.308594 19.765625 16.191406 20.148438 L 15.519531 20.105469 C 15.390625 20.101562 15.265625 20.148438 15.171875 20.234375 C 15.082031 20.324219 15.027344 20.445312 15.027344 20.574219 L 15.027344 23.09375 C 15.027344 23.222656 15.082031 23.34375 15.171875 23.433594 C 15.265625 23.519531 15.390625 23.5625 15.519531 23.558594 L 16.191406 23.519531 C 16.304688 23.90625 16.457031 24.277344 16.648438 24.632812 L 16.148438 25.078125 C 16.046875 25.160156 15.988281 25.28125 15.984375 25.410156 C 15.980469 25.539062 16.035156 25.664062 16.128906 25.753906 L 17.910156 27.535156 C 18 27.625 18.132812 27.679688 18.253906 27.667969 C 18.382812 27.667969 18.503906 27.613281 18.589844 27.515625 L 19.035156 27.011719 C 19.390625 27.207031 19.757812 27.363281 20.148438 27.476562 L 20.105469 28.148438 C 20.101562 28.273438 20.148438 28.398438 20.234375 28.492188 C 20.324219 28.585938 20.449219 28.636719 20.574219 28.636719 L 23.09375 28.636719 C 23.222656 28.636719 23.34375 28.585938 23.429688 28.492188 C 23.519531 28.402344 23.566406 28.277344 23.558594 28.148438 L 23.519531 27.476562 C 23.90625 27.363281 24.277344 27.210938 24.632812 27.019531 L 25.078125 27.515625 C 25.160156 27.613281 25.28125 27.667969 25.410156 27.667969 C 25.539062 27.679688 25.664062 27.628906 25.753906 27.535156 L 27.535156 25.753906 C 27.628906 25.664062 27.675781 25.539062 27.667969 25.410156 C 27.667969 25.28125 27.613281 25.160156 27.515625 25.078125 L 27.011719 24.628906 C 27.207031 24.277344 27.363281 23.90625 27.476562 23.519531 L 28.148438 23.558594 C 28.269531 23.5625 28.398438 23.519531 28.492188 23.433594 C 28.585938 23.34375 28.636719 23.222656 28.636719 23.09375 L 28.636719 20.574219 C 28.640625 20.445312 28.585938 20.320312 28.492188 20.234375 M 4.292969 22.914062 L 13.605469 22.914062 L 13.605469 23.847656 L 3.828125 23.847656 C 3.703125 23.847656 3.585938 23.796875 3.496094 23.710938 C 3.410156 23.621094 3.363281 23.503906 3.363281 23.378906 L 3.363281 3.828125 C 3.363281 3.570312 3.570312 3.363281 3.828125 3.363281 L 25.242188 3.363281 C 25.5 3.363281 25.707031 3.570312 25.710938 3.828125 L 25.710938 14.066406 L 24.777344 14.066406 L 24.777344 4.292969 L 4.292969 4.292969 Z M 19.65625 9.878906 L 19.191406 9.878906 L 19.191406 8.949219 L 21.984375 8.949219 L 21.984375 9.878906 Z M 20.125 8.015625 L 20.125 6.15625 L 21.054688 6.15625 L 21.054688 8.015625 Z M 21.984375 14.066406 L 21.984375 10.8125 L 22.449219 10.8125 C 22.707031 10.8125 22.914062 10.601562 22.914062 10.34375 L 22.914062 8.480469 C 22.914062 8.355469 22.867188 8.238281 22.777344 8.152344 C 22.691406 8.0625 22.574219 8.015625 22.449219 8.015625 L 21.984375 8.015625 L 21.984375 5.691406 C 21.984375 5.566406 21.933594 5.445312 21.847656 5.359375 C 21.757812 5.273438 21.640625 5.226562 21.515625 5.226562 L 19.65625 5.226562 C 19.53125 5.222656 19.414062 5.273438 19.328125 5.363281 C 19.238281 5.449219 19.191406 5.566406 19.191406 5.691406 L 19.191406 8.015625 L 18.726562 8.015625 C 18.472656 8.015625 18.261719 8.222656 18.261719 8.480469 L 18.261719 10.34375 C 18.261719 10.601562 18.46875 10.8125 18.726562 10.8125 L 19.191406 10.8125 L 19.191406 14.066406 L 20.125 14.066406 L 20.125 10.8125 L 21.054688 10.8125 L 21.054688 14.066406 Z M 13.140625 15 L 12.675781 15 L 12.675781 14.066406 L 15.464844 14.066406 L 15.464844 15 Z M 13.605469 13.140625 L 13.605469 6.15625 L 14.535156 6.15625 L 14.535156 13.140625 Z M 15.464844 16.863281 L 15.464844 15.929688 L 15.929688 15.929688 C 16.050781 15.929688 16.171875 15.882812 16.261719 15.796875 C 16.347656 15.707031 16.394531 15.589844 16.398438 15.464844 L 16.398438 13.605469 C 16.394531 13.347656 16.183594 13.144531 15.929688 13.140625 L 15.464844 13.140625 L 15.464844 5.691406 C 15.460938 5.4375 15.253906 5.230469 15 5.226562 L 13.140625 5.226562 C 12.882812 5.226562 12.675781 5.433594 12.675781 5.691406 L 12.675781 13.140625 L 12.207031 13.140625 C 12.082031 13.140625 11.964844 13.191406 11.878906 13.277344 C 11.792969 13.363281 11.742188 13.480469 11.742188 13.605469 L 11.742188 15.464844 C 11.742188 15.589844 11.789062 15.707031 11.878906 15.792969 C 11.964844 15.882812 12.082031 15.929688 12.207031 15.929688 L 12.675781 15.929688 L 12.675781 21.054688 L 13.605469 21.054688 L 13.605469 15.929688 L 14.535156 15.929688 L 14.535156 16.863281 Z M 6.15625 10.34375 L 8.949219 10.34375 L 8.949219 11.277344 L 6.15625 11.277344 Z M 7.085938 9.414062 L 7.085938 6.15625 L 8.015625 6.15625 L 8.015625 9.414062 Z M 7.085938 20.125 L 7.085938 12.207031 L 8.015625 12.207031 L 8.015625 20.125 Z M 6.617188 21.054688 L 8.480469 21.054688 C 8.742188 21.054688 8.949219 20.84375 8.949219 20.589844 L 8.949219 12.207031 L 9.414062 12.207031 C 9.539062 12.207031 9.65625 12.160156 9.742188 12.070312 C 9.832031 11.984375 9.878906 11.867188 9.878906 11.742188 L 9.878906 9.878906 C 9.878906 9.625 9.671875 9.414062 9.414062 9.414062 L 8.949219 9.414062 L 8.949219 5.691406 C 8.953125 5.566406 8.902344 5.445312 8.8125 5.359375 C 8.722656 5.273438 8.605469 5.226562 8.480469 5.226562 L 6.617188 5.226562 C 6.363281 5.230469 6.160156 5.4375 6.15625 5.691406 L 6.15625 9.414062 L 5.691406 9.414062 C 5.566406 9.414062 5.449219 9.464844 5.363281 9.550781 C 5.273438 9.636719 5.226562 9.753906 5.226562 9.878906 L 5.226562 11.742188 C 5.226562 11.996094 5.433594 12.207031 5.691406 12.207031 L 6.15625 12.207031 L 6.15625 20.589844 C 6.15625 20.84375 6.363281 21.054688 6.617188 21.054688 "/>
</svg>

<svg role="img" viewBox="0 0 32 32" height="32" width="32" xmlns="http://www.w3.org/2000/svg"><path d="M.203.203h31.594v31.594H.203Zm0 0" fill="rgb(90.588235%, 8.235294%, 48.235294%)"/><path d="m24.68 19.3.879.305-.555 1.606a.459.459 0 0 1-.442.309h-.054l-1.797-.227.117-.922 1.016.125c-.403-.629-1.153-1.016-2.051-1.016-1.18 0-2.07.645-2.273 1.641l-.91-.187c.296-1.45 1.546-2.387 3.183-2.387 1.148 0 2.121.488 2.707 1.273Zm-.614 3.153.91.192c-.296 1.437-1.574 2.402-3.183 2.402-1.05 0-1.973-.453-2.57-1.176l-.09.438-.914-.196.37-1.742a.466.466 0 0 1 .548-.36l1.691.333-.18.914-.851-.168c.406.625 1.144 1.027 1.996 1.027 1.176 0 2.066-.652 2.273-1.664m3.641.145-.559-.032a.483.483 0 0 0-.484.364 4.736 4.736 0 0 1-.64 1.543.47.47 0 0 0 .085.597l.418.371-1.082 1.086-.37-.418a.465.465 0 0 0-.598-.078 5.06 5.06 0 0 1-1.547.637.47.47 0 0 0-.364.484l.032.555h-1.535l.03-.555a.465.465 0 0 0-.359-.484 5.058 5.058 0 0 1-1.547-.637.46.46 0 0 0-.593.078l-.375.418-1.082-1.086.418-.367a.47.47 0 0 0 .082-.597c-.301-.477-.516-1-.64-1.547a.457.457 0 0 0-.477-.364l-.56.032v-1.532l.56.028a.475.475 0 0 0 .48-.36c.121-.547.34-1.066.64-1.543a.46.46 0 0 0-.085-.593l-.418-.38 1.082-1.081.379.418a.46.46 0 0 0 .593.086A4.92 4.92 0 0 1 20.734 17a.448.448 0 0 0 .36-.477l-.032-.562h1.536l-.032.562a.458.458 0 0 0 .364.477 4.89 4.89 0 0 1 1.539.64.47.47 0 0 0 .601-.081l.371-.422 1.086 1.082-.418.379a.466.466 0 0 0-.086.593c.301.477.52.997.641 1.543.055.223.27.375.484.36l.559-.028Zm.785-2.364a.49.49 0 0 0-.344-.129l-.675.043a5.634 5.634 0 0 0-.461-1.109l.504-.45a.445.445 0 0 0 .152-.335.45.45 0 0 0-.133-.344l-1.781-1.781a.461.461 0 0 0-.676.02l-.45.503a5.62 5.62 0 0 0-1.108-.457l.039-.675a.447.447 0 0 0-.13-.344.455.455 0 0 0-.335-.149h-2.52a.482.482 0 0 0-.34.145.461.461 0 0 0-.129.348l.043.675a5.62 5.62 0 0 0-1.109.457l-.45-.504a.468.468 0 0 0-.68-.02l-1.78 1.782a.468.468 0 0 0 .02.68l.503.45a6.102 6.102 0 0 0-.46 1.108l-.672-.043a.493.493 0 0 0-.348.13.482.482 0 0 0-.145.34v2.519c0 .129.055.25.145.34a.496.496 0 0 0 .348.125l.671-.04c.114.387.266.758.457 1.114l-.5.445a.452.452 0 0 0-.02.676l1.782 1.781c.09.09.223.145.344.133.129 0 .25-.055.336-.152l.445-.504c.356.195.723.351 1.113.465l-.043.671a.49.49 0 0 0 .13.344c.09.094.214.145.34.145h2.519c.129 0 .25-.051.336-.145a.447.447 0 0 0 .129-.344l-.04-.671a5.753 5.753 0 0 0 1.114-.457l.445.496a.431.431 0 0 0 .332.152.424.424 0 0 0 .344-.133l1.781-1.781a.436.436 0 0 0 .133-.344.431.431 0 0 0-.152-.332l-.504-.45a5.42 5.42 0 0 0 .465-1.108l.671.039c.122.003.25-.04.344-.125a.467.467 0 0 0 .145-.34v-2.52a.446.446 0 0 0-.145-.34m-24.199 2.68h9.312v.934H3.828a.48.48 0 0 1-.332-.137.477.477 0 0 1-.133-.332V3.829c0-.259.207-.466.465-.466h21.414a.47.47 0 0 1 .469.465v10.238h-.934V4.293H4.293ZM19.656 9.88h-.465v-.93h2.793v.93Zm.469-1.863v-1.86h.93v1.86Zm1.86 6.05v-3.254h.464c.258 0 .465-.21.465-.468V8.48a.448.448 0 0 0-.137-.328.448.448 0 0 0-.328-.136h-.465V5.69a.473.473 0 0 0-.136-.332.477.477 0 0 0-.332-.132h-1.86a.434.434 0 0 0-.328.136.448.448 0 0 0-.137.328v2.325h-.464a.466.466 0 0 0-.465.464v1.864c0 .258.207.469.465.469h.464v3.253h.934v-3.254h.93v3.254ZM13.14 15h-.465v-.934h2.789V15Zm.464-1.86V6.157h.93v6.985Zm1.86 3.723v-.933h.465a.484.484 0 0 0 .332-.133.498.498 0 0 0 .136-.332v-1.86a.472.472 0 0 0-.468-.464h-.465V5.69A.471.471 0 0 0 15 5.227h-1.86a.464.464 0 0 0-.464.464v7.45h-.469a.464.464 0 0 0-.465.464v1.86c0 .125.047.242.137.328.086.09.203.137.328.137h.469v5.125h.93V15.93h.93v.933Zm-9.309-6.52H8.95v.934H6.156Zm.93-.929V6.156h.93v3.258Zm0 10.711v-7.918h.93v7.918Zm-.469.93H8.48c.262 0 .47-.211.47-.465v-8.383h.464a.448.448 0 0 0 .328-.137.448.448 0 0 0 .137-.328V9.88a.466.466 0 0 0-.465-.465H8.95V5.691a.442.442 0 0 0-.136-.332.477.477 0 0 0-.333-.132H6.617a.47.47 0 0 0-.46.464v3.723H5.69a.464.464 0 0 0-.464.465v1.863c0 .254.207.465.464.465h.465v8.383c0 .254.207.465.461.465" fill="rgb(100%, 100%, 100%)"/></svg>
